X:18016
T:Rufty Tufty
R:Reel
C:Trad. Playford 1651
O:England
M:4/4
L:1/8
Q:1/4=160
K:D
A2|"D"d4 "A7"d2 e2|"D"f4 e2 f2|"G"g2 g2 "A7"f2 e2|"D"d6:|
K:G
|:ef|"D"g2 f2 e2 "C"d2|"G"d2 c2 B2 Bc|"G"d2 d2 c2 B2|"D7"A4 "G"G2:|
|:B2|"D7"B3 c "G"d2 d2|"C"e2 c2 "G"d4|"D7"B3 c "G"d2 d2|"C"e2 c2 "G"d2 Bc|"G"d2 d2 c2 B2|"D7"A4 "G"G2:|

